src/3-context/stop--train.svg

<svg width="1300" height="1000" viewBox="0 0 1300 1000" fill="none" xmlns="http://www.w3.org/2000/svg"><g clip-path="url(#a)" fill="#000"><path d="M708 951h7v17c0 8.284 6.716 15 15 15h55v7h-57c-11.046 0-20-8.954-20-20v-19Zm547 0h-7v17c0 8.284-6.72 15-15 15h-55v7h57c11.05 0 20-8.954 20-20v-19Z"/><path d="M652.238 107H1300v-7H650c-11.046 0-20 8.954-20 20v812c0 11.046 8.954 20 20 20h126.428v-7h-124.19c-8.285 0-15-6.716-15-15V122c0-8.284 6.715-15 15-15Z"/><path d="M630 150h670v7H630v-7Zm0 443h670v7H630v-7Z"/><path fill-rule="evenodd" clip-rule="evenodd" d="M720 800c22.091 0 40-17.909 40-40s-17.909-40-40-40-40 17.909-40 40 17.909 40 40 40Zm0-7c18.225 0 33-14.775 33-33s-14.775-33-33-33-33 14.775-33 33 14.775 33 33 33Zm100 7c22.091 0 40-17.909 40-40s-17.909-40-40-40-40 17.909-40 40 17.909 40 40 40Zm0-7c18.225 0 33-14.775 33-33s-14.775-33-33-33-33 14.775-33 33 14.775 33 33 33Zm358 7c22.09 0 40-17.909 40-40s-17.91-40-40-40-40 17.909-40 40 17.91 40 40 40Zm0-7c18.23 0 33-14.775 33-33s-14.77-33-33-33-33 14.775-33 33 14.77 33 33 33Z"/><path d="M630 893h678v7H630v-7Zm548 52h122v7h-122v-7Z"/><path fill-rule="evenodd" clip-rule="evenodd" d="M783 930a5 5 0 0 0-5 5v45c0 11.046 8.954 20 20 20h367c11.05 0 20-8.954 20-20v-45c0-2.761-2.24-5-5-5H783Zm395 7H785v41c0 8.284 6.716 15 15 15h363c8.28 0 15-6.716 15-15v-41ZM115 69c-8.284 0-15 6.716-15 15v70c0 8.284 6.716 15 15 15h270c8.284 0 15-6.716 15-15V84c0-8.284-6.716-15-15-15H115Zm2 7c-5.523 0-10 4.477-10 10v66c0 5.523 4.477 10 10 10h266c5.523 0 10-4.477 10-10V86c0-5.523-4.477-10-10-10H117Z"/><path d="M200 69h7v100h-7V69ZM130 0h7v76h-7V0Zm233 0h7v76h-7V0ZM149.067 99.57a3.35 3.35 0 0 0-4.933 4.533l13.315 14.712-13.364 15.106a3.352 3.352 0 0 0 4.988 4.483l16.059-17.581a2.999 2.999 0 0 0-.023-4.07l-16.042-17.184Z"/></g><defs><clipPath id="a"><path fill="#fff" d="M0 0h1300v1000H0z"/></clipPath></defs></svg>

<svg width="1300" height="1000" viewBox="0 0 1300 1000" fill="none" xmlns="http://www.w3.org/2000/svg">
<g clip-path="url(#clip0_179_1578)">
<path d="M708 951H715V968C715 976.284 721.716 983 730 983H785V990H728C716.954 990 708 981.046 708 970V951Z" fill="black"/>
<path d="M1255 951H1248V968C1248 976.284 1241.28 983 1233 983H1178V990H1235C1246.05 990 1255 981.046 1255 970V951Z" fill="black"/>
<path d="M652.238 107H1300V100H650C638.954 100 630 108.954 630 120V932C630 943.046 638.954 952 650 952H776.428V945H652.238C643.953 945 637.238 938.284 637.238 930V122C637.238 113.716 643.953 107 652.238 107Z" fill="black"/>
<path d="M630 150H1300V157H630V150Z" fill="black"/>
<path d="M630 593H1300V600H630V593Z" fill="black"/>
<path fill-rule="evenodd" clip-rule="evenodd" d="M720 800C742.091 800 760 782.091 760 760C760 737.909 742.091 720 720 720C697.909 720 680 737.909 680 760C680 782.091 697.909 800 720 800ZM720 793C738.225 793 753 778.225 753 760C753 741.775 738.225 727 720 727C701.775 727 687 741.775 687 760C687 778.225 701.775 793 720 793Z" fill="black"/>
<path fill-rule="evenodd" clip-rule="evenodd" d="M820 800C842.091 800 860 782.091 860 760C860 737.909 842.091 720 820 720C797.909 720 780 737.909 780 760C780 782.091 797.909 800 820 800ZM820 793C838.225 793 853 778.225 853 760C853 741.775 838.225 727 820 727C801.775 727 787 741.775 787 760C787 778.225 801.775 793 820 793Z" fill="black"/>
<path fill-rule="evenodd" clip-rule="evenodd" d="M1178 800C1200.09 800 1218 782.091 1218 760C1218 737.909 1200.09 720 1178 720C1155.91 720 1138 737.909 1138 760C1138 782.091 1155.91 800 1178 800ZM1178 793C1196.23 793 1211 778.225 1211 760C1211 741.775 1196.23 727 1178 727C1159.77 727 1145 741.775 1145 760C1145 778.225 1159.77 793 1178 793Z" fill="black"/>
<path d="M630 893H1308V900H630V893Z" fill="black"/>
<path d="M1178 945H1300V952H1178V945Z" fill="black"/>
<path fill-rule="evenodd" clip-rule="evenodd" d="M783 930C780.239 930 778 932.239 778 935V980C778 991.046 786.954 1000 798 1000H1165C1176.05 1000 1185 991.046 1185 980V935C1185 932.239 1182.76 930 1180 930H783ZM1178 937H785V978C785 986.284 791.716 993 800 993H1163C1171.28 993 1178 986.284 1178 978V937Z" fill="black"/>
<path fill-rule="evenodd" clip-rule="evenodd" d="M115 69C106.716 69 100 75.7157 100 84V154C100 162.284 106.716 169 115 169H385C393.284 169 400 162.284 400 154V84C400 75.7157 393.284 69 385 69H115ZM117 76C111.477 76 107 80.4772 107 86V152C107 157.523 111.477 162 117 162H383C388.523 162 393 157.523 393 152V86C393 80.4772 388.523 76 383 76H117Z" fill="black"/>
<path d="M200 69H207V169H200V69Z" fill="black"/>
<path d="M130 0H137V76H130V0Z" fill="black"/>
<path d="M363 0H370V76H363V0Z" fill="black"/>
<path d="M149.067 99.5692C147.761 98.1707 145.551 98.1479 144.217 99.5192C142.984 100.786 142.948 102.793 144.134 104.103L157.449 118.815L144.085 133.921C142.913 135.246 142.972 137.254 144.221 138.508C145.571 139.865 147.781 139.817 149.073 138.404L165.132 120.823C166.187 119.668 166.177 117.896 165.109 116.753L149.067 99.5692Z" fill="black"/>
</g>
<defs>
<clipPath id="clip0_179_1578">
<rect width="1300" height="1000" fill="white"/>
</clipPath>
</defs>
</svg>
